X: 263
T: 264. Jesu meines Herzens Freud
N: Derived from chor264.krn
C: Johann Sebastian Bach
%%abc-version 2.0
%%abcx-abcm2ps-target-version 5.9.1 (29 Sep 2008)
%%abc-creator hum2abc beta
%%abcx-conversion-date 2019/03/11 17:28:19
%%abc-edited-by Craig Stuart Sapp
%%humdrum-veritas 963634326
%%humdrum-veritas-data 2778041200
%%
%%barnumbers 0
L: 1/8
M: C
%%staves [1 2 3 4]
V: 1 clef=treble
V: 2 clef=treble
V: 3 clef=treble-8
V: 4 clef=bass
K: Bb
[V:1] d2de fed2 | 
[V:2] F2G2F2BA | 
[V:3] B2Bc dcB2 | 
[V:4] B,A,G,2D,2G,F, | 
[V:1] c3c!fermata!c4 | 
[V:2] G2F=E!fermata!F4 | 
[V:3] B2AG!fermata!A4 | 
[V:4] =E,D,C,2!fermata!F,4 | 
[V:1] d2_edc3B | 
[V:2] F2_EFG2F/E/D/E/ | 
[V:3] B2B2B2A2 | 
[V:4] B,A, G,F,_E,2F,2 | 
[V:1] !fermata!B4AG AB | 
[V:2] !fermata!D4C2F2 | 
[V:3] !fermata!F4F2c2 | 
[V:4] !fermata!B,,4F,=E, F,G, | 
[V:1] cBA2G3G | 
[V:2] F2F2F=ED2 | 
[V:3] c2c2c2c=B | 
[V:4] A,G, A,B,C2G,2 | 
[V:1] !fermata!G4A2_BA | 
[V:2] !fermata!=E4E2D2 | 
[V:3] !fermata!c4AGF2 | 
[V:4] !fermata!C,4^C,2D,=C, | 
[V:1] G3F!fermata!F4 | 
[V:2] D2C2!fermata!C4 | 
[V:3] F2=E2!fermata!A4 | 
[V:4] B,,2C,2!fermata!F,4 | 
[V:1] d2d_ef2ed | 
[V:2] C2B,2C2F2 | 
[V:3] a2g2f2B2 | 
[V:4] ^F,2G,2A,2B,2 | 
[V:1] c3c!fermata!c4 | 
[V:2] GFG2!fermata!F4 | 
[V:3] e3e!fermata!e4 | 
[V:4] B,A, B,G,!fermata!A,4 | 
[V:1] d2edc3B | 
[V:2] F2EFG2A2 | 
[V:3] dcB2B2Ad | 
[V:4] B,A, G,F,=E,2^F,2 | 
[V:1] !fermata!B4_ed ef | 
[V:2] !fermata!G4G2=F2 | 
[V:3] !fermata!d4c2c2 | 
[V:4] !fermata!G,4CB, A,=F, | 
[V:1] dc dec3B | 
[V:2] F2B2B2A2 | 
[V:3] c2B2g2fe | 
[V:4] B,A, G,F,E,2F,2 | 
[V:1] !fermata!B8 |]  
[V:2] !fermata!F8 |]  
[V:3] !fermata!d8 |]  
[V:4] !fermata!B,,8 |]  



